X: 01016
T: CAMP OCEANWARD
C: Bob McQuillen July '74
B: Bob's Note Book 1 #16
%R: reel, polka
Z: 2019 John Chambers <jc:trillian.mit.edu>
M: C
L: 1/8
K: D
FG \
| A2B2 A2FG | A2f2 f2gf | e2A2 B2c2 | dcdB A2FG |
| A2B2 A2FG | A2f2 f2ef | gfed cdeg | f2d2 d2 :|
|: cd \
| efed cABc | d2A2 A2AG | FABA GFED | E2A2 A2cd |
| efed cABc | dedB ABAG | FAdf edce | d2f2 d2 :|
%%begintext align
%% For Perk and Jimmy
%% and all at Friendship, Me.
%%endtext

%%sep 1 1 500

%%sep 1 1 500

